X:1
T:Title
%%score 1 { 2 | 3 }
L:1/8
Q:1/4=100
M:6/8
K:Eb
V:1 treble nm="Grand Piano, Soprano"
V:2 bass nm="Choir Pad, The Lord Jesus of My Soul"
V:3 bass 
V:1
 [EG]2 [EG] [EG]2 [DF] | [B,F] [B,E]2 z2 B, | [DA][DA][DA] [DA]2 [D_G] | %3
w: By~Florence~Heagle * * *|||
 [EG]3- [EG]3/2 z/ [EG]/[FA]/ | [GB]2 [GB] [GB]2 [Ac] | [Ac] [GB]2 E2 [EG] | %6
w: |||
 [EG]2 [EF] [EF]2 [EG] | [DF]3- [DF]3/2 z/ [D_G]/[DG]/ | [EG]2 [EB] [Ec] [Ae]2 | %9
w: |||
 [GB] [EG]2 E2 [EA] | [EG] [B,E]2 [DF]2 E | E3- E3/2 z/ [EB] | [DB]2 [DF] [DF]2 [DB] | %13
w: ||||
 [EB]3- [EB]3/2 z/ [EG] | [EG]2 [B,E] [DF]2 E | E6- | E3 z3 |] %17
w: ||||
V:2
 B,2 B, B,2 A, | A, G,2 z2 G, | F,F,F, F,2 B, | B,3- B,3/2 z/ B,/B,/ | E2 E E2 E | %5
 E E2[K:bass] G,2 B, | =A,2 A, A,2 A, | B,3- B,3/2 z/ B,/B,/ | B,2 G, A,[K:treble] C2 | %9
 E B,2 C2 C | B, G,2 A,2 G, | G,3- G,3/2 z/ G, | F,2 B, B,2 A, | G,3- G,3/2 z/ B, | B,2 G, A,2 G, | %15
 G,6- | G,3 z3 |] %17
V:3
 E,2 E, E,2 B,, | E, E,2 z2 E, | B,,B,,B,, B,,2 B,, | E,3- E,3/2 z/ E,/E,/ | E,2 E, E,2 E, | %5
 E, E,2 E,2 E, | C,2 C, F,2 F, | B,,3- B,,3/2 z/ B,,/B,,/ | E,2 E, A,, A,,2 | E, E,2 C,2 A,, | %10
 B,, B,,2 B,,2 E, | E,3- E,3/2 z/ E, | B,,2 B,, B,,2 B,, | E,3- E,3/2 z/ E, | E,2 E, B,,2 E, | %15
 E,6- | E,3 z3 |] %17

